web/packages/design/src/ResourceIcon/assets/microsoftword.svg

<svg width="72" height="72" viewBox="0 0 72 72" fill="none" xmlns="http://www.w3.org/2000/svg">
<g clip-path="url(#clip0_8803_4753)">
<path d="M68.9307 2.50977H19.8134C18.1183 2.50977 16.7441 3.8839 16.7441 5.57898V19.254L45.2093 27.626L72 19.254V5.57898C72 3.8839 70.6258 2.50977 68.9307 2.50977Z" fill="#41A5EE"/>
<path d="M72 19.2539H16.7441V35.9981L45.2093 41.0213L72 35.9981V19.2539Z" fill="#2B7CD3"/>
<path d="M16.7441 35.998V52.7422L43.5348 56.0911L72 52.7422V35.998H16.7441Z" fill="#185ABD"/>
<path d="M19.8134 69.4864H68.9308C70.6259 69.4864 72 68.1122 72 66.4172V52.7422H16.7441V66.4172C16.7441 68.1122 18.1183 69.4864 19.8134 69.4864Z" fill="#103F91"/>
<path opacity="0.1" d="M37.1168 15.9053H16.7441V57.7657H37.1168C38.8096 57.7602 40.1805 56.3893 40.186 54.6965V18.9745C40.1805 17.2817 38.8096 15.9108 37.1168 15.9053Z" fill="black"/>
<path opacity="0.2" d="M35.4424 17.5796H16.7441V59.4401H35.4424C37.1352 59.4345 38.5061 58.0636 38.5116 56.3708V20.6488C38.5061 18.956 37.1352 17.5851 35.4424 17.5796Z" fill="black"/>
<path opacity="0.2" d="M35.4424 17.5796H16.7441V56.0912H35.4424C37.1352 56.0857 38.5061 54.7148 38.5116 53.022V20.6488C38.5061 18.956 37.1352 17.5851 35.4424 17.5796Z" fill="black"/>
<path opacity="0.2" d="M33.7679 17.5796H16.7441V56.0912H33.7679C35.4607 56.0857 36.8317 54.7148 36.8372 53.022V20.6488C36.8317 18.956 35.4607 17.5851 33.7679 17.5796Z" fill="black"/>
<path d="M3.06922 17.5796H33.768C35.4631 17.5796 36.8372 18.9537 36.8372 20.6488V51.3476C36.8372 53.0427 35.4631 54.4168 33.768 54.4168H3.06922C1.37413 54.4168 0 53.0427 0 51.3476V20.6488C0 18.9537 1.37413 17.5796 3.06922 17.5796Z" fill="url(#paint0_linear_8803_4753)"/>
<path d="M12.5948 41.1184C12.6551 41.5922 12.6953 42.0042 12.7137 42.3575H12.784C12.8108 42.0226 12.8666 41.619 12.9514 41.1469C13.0363 40.6747 13.1127 40.2756 13.1808 39.9497L16.4091 26.0218H20.5834L23.9323 39.7404C24.1269 40.5934 24.2661 41.4581 24.3492 42.329H24.4045C24.4669 41.4852 24.5833 40.6463 24.7528 39.8174L27.4234 26.0151H31.2227L26.531 45.9742H22.0921L18.9107 32.7563C18.8186 32.3762 18.7131 31.8789 18.5976 31.2678C18.4821 30.6566 18.4101 30.2095 18.3816 29.9282H18.3263C18.2895 30.253 18.2175 30.7353 18.1103 31.3749C18.0031 32.0146 17.9172 32.4878 17.8524 32.7948L14.8619 45.9708H10.3477L5.63086 26.0218H9.49875L12.4072 39.9781C12.4726 40.2644 12.5345 40.6462 12.5948 41.1184Z" fill="white"/>
</g>
<defs>
<linearGradient id="paint0_linear_8803_4753" x1="6.39937" y1="15.1814" x2="30.4378" y2="56.815" gradientUnits="userSpaceOnUse">
<stop stop-color="#2368C4"/>
<stop offset="0.5" stop-color="#1A5DBE"/>
<stop offset="1" stop-color="#1146AC"/>
</linearGradient>
<clipPath id="clip0_8803_4753">
<rect width="72" height="72" fill="white"/>
</clipPath>
</defs>
</svg>

<svg xmlns="http://www.w3.org/2000/svg" width="72" height="72" fill="none" viewBox="0 0 72 72"><g clip-path="url(#a)"><path fill="#41a5ee" d="M68.93 2.51H19.814a3.07 3.07 0 0 0-3.069 3.069v13.675l28.465 8.372L72 19.254V5.579a3.07 3.07 0 0 0-3.07-3.07"/><path fill="#2b7cd3" d="M72 19.254H16.744v16.744l28.465 5.023L72 35.998z"/><path fill="#185abd" d="M16.744 35.998v16.744l26.79 3.35L72 52.741V35.998z"/><path fill="#103f91" d="M19.813 69.486h49.118A3.07 3.07 0 0 0 72 66.417V52.742H16.744v13.675a3.07 3.07 0 0 0 3.07 3.07"/><path fill="#000" d="M37.117 15.905H16.744v41.86h20.373a3.08 3.08 0 0 0 3.069-3.068V18.974a3.08 3.08 0 0 0-3.07-3.069" opacity=".1"/><path fill="#000" d="M35.442 17.58H16.744v41.86h18.698a3.08 3.08 0 0 0 3.07-3.07V20.65a3.08 3.08 0 0 0-3.07-3.07" opacity=".2"/><path fill="#000" d="M35.442 17.58H16.744v38.51h18.698a3.08 3.08 0 0 0 3.07-3.069V20.649a3.08 3.08 0 0 0-3.07-3.07" opacity=".2"/><path fill="#000" d="M33.768 17.58H16.744v38.51h17.024a3.08 3.08 0 0 0 3.07-3.069V20.649a3.08 3.08 0 0 0-3.07-3.07" opacity=".2"/><path fill="url(#b)" d="M3.07 17.58h30.698a3.07 3.07 0 0 1 3.07 3.069v30.699a3.07 3.07 0 0 1-3.07 3.069H3.069A3.07 3.07 0 0 1 0 51.347V20.65a3.07 3.07 0 0 1 3.07-3.07"/><path fill="#fff" d="M12.595 41.118q.09.71.119 1.24h.07q.04-.503.167-1.211.128-.708.23-1.197l3.228-13.928h4.174l3.35 13.718q.291 1.281.416 2.589h.055a20 20 0 0 1 .349-2.512l2.67-13.802h3.8l-4.692 19.96h-4.439l-3.181-13.219q-.14-.57-.313-1.488a18 18 0 0 1-.216-1.34h-.056q-.055.487-.216 1.447-.16.96-.258 1.42l-2.99 13.176h-4.514L5.63 26.02h3.868l2.908 13.957q.098.43.188 1.14"/></g><defs><linearGradient id="b" x1="6.399" x2="30.438" y1="15.181" y2="56.815" gradientUnits="userSpaceOnUse"><stop stop-color="#2368c4"/><stop offset=".5" stop-color="#1a5dbe"/><stop offset="1" stop-color="#1146ac"/></linearGradient><clipPath id="a"><path fill="#fff" d="M0 0h72v72H0z"/></clipPath></defs></svg>
